X: 5716
T: Caden's Smile
R: reel
M: 4/4
K: Amajor
|:c3 c2 ABc|ecBA A2 z F|E F/G/A B c/B/A (B2|B)ABc dcBA|
c3 c2 ABc|ecBA A2 z F|E F/G/A B c/B/A (B2|1 :B)ABc A2 (3AAA:|2 B)ABc A2 B/c/e||
|:f3 f3 ac|e3 e2 cBA|B3 B2 c/B/AB|c3 e dcAE|
EF (3FFE FF EF/G/|AB c/B/A A2 B/c/d|eAaf ecBc|1 A3 A3 (3Bce:|2 A3 A2 cBA||
|:GEAE B2E(c|c)EdE e2 B/c/e|fAaf ecBA|B3 B2 A B/c/d|
eA ag f4|ecBA A2 z F|EF/G/AB c/B/A Bc|1 : A3 A2 cBA:|2 A3 A3 AB||

